src/shared/_assets/icons/clipboard-check.svg

<svg width="27" height="30" viewBox="0 0 27 30" fill="none" xmlns="http://www.w3.org/2000/svg">
<path d="M11.4 22.575L21.975 12L19.875 9.9L11.4 18.375L7.125 14.1L5.025 16.2L11.4 22.575ZM3 30C2.175 30 1.46875 29.7062 0.88125 29.1187C0.29375 28.5312 0 27.825 0 27V6C0 5.175 0.29375 4.46875 0.88125 3.88125C1.46875 3.29375 2.175 3 3 3H9.3C9.625 2.1 10.1687 1.375 10.9312 0.825C11.6937 0.275 12.55 0 13.5 0C14.45 0 15.3063 0.275 16.0688 0.825C16.8313 1.375 17.375 2.1 17.7 3H24C24.825 3 25.5312 3.29375 26.1187 3.88125C26.7062 4.46875 27 5.175 27 6V27C27 27.825 26.7062 28.5312 26.1187 29.1187C25.5312 29.7062 24.825 30 24 30H3ZM3 27H24V6H3V27ZM13.5 4.875C13.825 4.875 14.0938 4.76875 14.3062 4.55625C14.5187 4.34375 14.625 4.075 14.625 3.75C14.625 3.425 14.5187 3.15625 14.3062 2.94375C14.0938 2.73125 13.825 2.625 13.5 2.625C13.175 2.625 12.9062 2.73125 12.6938 2.94375C12.4813 3.15625 12.375 3.425 12.375 3.75C12.375 4.075 12.4813 4.34375 12.6938 4.55625C12.9062 4.76875 13.175 4.875 13.5 4.875Z" fill="black"/>
</svg>

<svg xmlns="http://www.w3.org/2000/svg" fill="none" viewBox="0 0 27 30"><path fill="currentColor" d="M11.4 22.575 21.975 12l-2.1-2.1-8.475 8.475L7.125 14.1l-2.1 2.1zM3 30a2.9 2.9 0 0 1-2.119-.881A2.9 2.9 0 0 1 0 27V6q0-1.237.881-2.119A2.9 2.9 0 0 1 3 3h6.3q.488-1.35 1.631-2.175A4.3 4.3 0 0 1 13.5 0q1.425 0 2.569.825A4.5 4.5 0 0 1 17.7 3H24q1.237 0 2.119.881.88.882.881 2.119v21q0 1.237-.881 2.119A2.9 2.9 0 0 1 24 30zm0-3h21V6H3zM13.5 4.875q.488 0 .806-.319.32-.318.319-.806 0-.488-.319-.806a1.1 1.1 0 0 0-.806-.319q-.488 0-.806.319a1.1 1.1 0 0 0-.319.806q0 .488.319.806.318.32.806.319"/></svg>
